src/Assets/Icons/HomeScreen/MainFooterComponent/phone.svg

<svg width="24" height="24" viewBox="0 0 24 24" fill="none" xmlns="http://www.w3.org/2000/svg">
<path d="M19.2271 23.9998C18.1814 23.9998 16.7124 23.6216 14.5128 22.3926C11.8379 20.8926 9.76896 19.5078 7.10857 16.8543C4.54354 14.2909 3.29531 12.6313 1.54833 9.45229C-0.425266 5.86297 -0.0888333 3.98151 0.287243 3.1774C0.735105 2.21632 1.39618 1.64149 2.25066 1.07094C2.736 0.75296 3.2496 0.480375 3.78496 0.256649C3.83854 0.233613 3.88836 0.211648 3.93282 0.191827C4.198 0.072361 4.59979 -0.108177 5.10873 0.0846825C5.44838 0.212184 5.75159 0.47308 6.22624 0.941836C7.19965 1.90185 8.52984 4.03991 9.02056 5.08992C9.35003 5.79761 9.56807 6.26476 9.5686 6.78869C9.5686 7.40209 9.26003 7.87513 8.88556 8.38567C8.81538 8.48157 8.74574 8.57318 8.67824 8.66211C8.27055 9.19783 8.18109 9.35265 8.24002 9.62908C8.35948 10.1846 9.25039 11.8384 10.7145 13.2993C12.1786 14.7602 13.7847 15.5949 14.3424 15.7138C14.6306 15.7754 14.7887 15.6822 15.3415 15.26C15.4208 15.1995 15.5022 15.1368 15.5874 15.0741C16.1585 14.6493 16.6096 14.3488 17.2085 14.3488H17.2117C17.733 14.3488 18.1792 14.5749 18.9185 14.9477C19.8828 15.4342 22.0852 16.7472 23.0511 17.7217C23.5209 18.1953 23.7829 18.4974 23.9109 18.8365C24.1038 19.3471 23.9222 19.7472 23.8038 20.0151C23.784 20.0596 23.762 20.1083 23.739 20.1624C23.5135 20.6968 23.2393 21.2094 22.9198 21.6935C22.3504 22.5453 21.7734 23.2048 20.8102 23.6532C20.3156 23.8872 19.7742 24.0057 19.2271 23.9998Z" fill="white"/>
</svg>

<svg xmlns="http://www.w3.org/2000/svg" width="24" height="24" fill="none"><path fill="#fff" d="M19.227 24c-1.046 0-2.515-.378-4.714-1.607-2.675-1.5-4.744-2.885-7.404-5.539-2.565-2.563-3.814-4.223-5.56-7.402C-.426 5.863-.09 3.982.286 3.177c.448-.96 1.11-1.536 1.964-2.106.485-.318.999-.59 1.534-.814l.148-.065c.265-.12.667-.3 1.176-.107.34.127.643.388 1.117.857.974.96 2.304 3.098 2.795 4.148.329.708.547 1.175.548 1.699 0 .613-.309 1.086-.683 1.597q-.105.143-.208.276c-.407.536-.497.69-.438.967.12.556 1.01 2.21 2.474 3.67 1.465 1.461 3.07 2.296 3.628 2.415.289.061.447-.032 1-.454q.118-.09.245-.186c.572-.425 1.023-.725 1.622-.725h.003c.521 0 .967.226 1.707.599.964.486 3.166 1.8 4.132 2.774.47.473.732.775.86 1.114.193.511.011.911-.107 1.18l-.065.146a9.5 9.5 0 0 1-.82 1.532c-.569.851-1.146 1.51-2.109 1.96a3.6 3.6 0 0 1-1.583.346"/></svg>
